X: 95
M: 6/8
L: 1/8
K: G
|: d |\
gfg e2e | fef ^d2B | efg Be^d | e3 g3 |\
dBd e2d | cAc d2f | gGB dDF | G3- G2 :|

